svg/OSM-icons/shop #ac39ac °ffffff !label=enshops,deLäden/29109;shop=newsagent;!name=;[shop];!label=ennewsagent,deZeitschriften Zeitungen.svg

<svg xmlns="http://www.w3.org/2000/svg" viewBox="0 0 580 580" enable-background="new 0 0 580 580"><path fill="#111" stroke="#eee" stroke-width="3.408" d="m66.28 1.768c-41.34 0-64.57 21.371-64.57 65.04v450.12c0 40.844 20.895 62.23 62.19 62.23h452.02c41.31 0 62.23-20.315 62.23-62.23v-450.12c0-42.602-20.923-65.04-63.52-65.04-.003 0-448.5-.143-448.35 0z"/><path fill="#fff" d="m480.01 153.38h-361.18l-62.813 196.29c0 42.5 34.451 76.948 76.947 76.948h314.07c42.498 0 76.946-34.451 76.946-76.948l-43.97-196.29m-174.31 32.978h147.61v15.703h-147.61v-15.703m0 50.25h152.32v9.423h-152.32v-9.423m0 32.457h157.56v9.422h-157.56v-9.422m0 32.452h163.31v9.423h-163.31v-9.423m0 32.453h171.17v9.423h-171.17v-9.423m-34.548-3.14v20.415 40.829h-160.18c-14.13-9.423-10.992-40.829-10.992-40.829l47.11-157.04h124.06v136.62m216.71 42.4h-182.16v-9.423h182.16v9.423"/></svg>

<?xml version="1.0" encoding="utf-8"?>
<!-- Generator: Adobe Illustrator 15.0.0, SVG Export Plug-In . SVG Version: 6.00 Build 0)  -->
<!DOCTYPE svg PUBLIC "-//W3C//DTD SVG 1.1//EN" "http://www.w3.org/Graphics/SVG/1.1/DTD/svg11.dtd">
<svg version="1.1" xmlns="http://www.w3.org/2000/svg" xmlns:xlink="http://www.w3.org/1999/xlink" x="0px" y="0px" width="580px"
	 height="580px" viewBox="0 0 580 580" enable-background="new 0 0 580 580" xml:space="preserve">
<g id="Layer_1">
	<g id="Layer_2">
		<g id="g1327">
			<path id="path1329" fill="#111111" stroke="#EEEEEE" stroke-width="3.408" d="M66.275,1.768
				c-41.335,0-64.571,21.371-64.571,65.036v450.123c0,40.844,20.895,62.229,62.192,62.229h452.024
				c41.307,0,62.229-20.315,62.229-62.229V66.804c0-42.602-20.923-65.036-63.521-65.036C514.625,1.768,66.133,1.625,66.275,1.768z"
				/>
		</g>
	</g>
</g>
<g id="Layer_2_1_">
	<path fill="#FFFFFF" d="M480.011,153.379h-361.18L56.018,349.673c0,42.5,34.451,76.948,76.947,76.948h314.07
		c42.498,0,76.946-34.451,76.946-76.948L480.011,153.379z M305.704,186.357h147.611v15.703H305.704V186.357L305.704,186.357z
		 M305.704,236.607h152.323v9.423H305.704V236.607L305.704,236.607z M305.704,269.064h157.559v9.422H305.704V269.064z
		 M305.704,301.516h163.315v9.423H305.704V301.516L305.704,301.516z M305.704,333.969h171.167v9.423H305.704V333.969
		L305.704,333.969z M271.156,330.829v20.415v40.829H110.98c-14.133-9.423-10.992-40.829-10.992-40.829l47.11-157.036h124.058
		V330.829z M487.863,373.228H305.704v-9.423h182.159V373.228z"/>
</g>
</svg>
